X: 42796
T: Whitestrand Sling
R: reel
M: 4/4
K: Gdorian
|:dBGA B2 cB|AFcF dFcF|ABcd c2 dc|BAGF DGG[Ac]:|
|:GABc ADFD|BDFD cDFG|ABcd c2 dc|BAGF DGBG:|
K:Bb
|:fB (3BBB fBgB|fBgB fded|cF (3FFF cFdF|cF (3FFF cedc|fB (3BBB fBgB|
fBgB fded|1 cF (3FFF cFdF|ecAc BGAc:|2 dGBd cFAc|BEGB ADFA|

